images/page-header-bg.svg

<svg width="1920" height="164" viewBox="0 0 1920 164" fill="none" xmlns="http://www.w3.org/2000/svg">
<path d="M1867.47 92.8442C1860.11 92.8442 1854.27 87.6116 1854.27 81.2658V12.2405C1854.27 5.78334 1860.11 0.550781 1867.47 0.550781C1874.83 0.550781 1880.8 5.78334 1880.8 12.2405V81.2658C1880.8 87.6116 1874.83 92.8442 1867.47 92.8442Z" fill="#1E84B5" fill-opacity="0.1"/>
<path d="M1814.92 46.7523C1814.92 40.2951 1820.76 35.0625 1828.12 35.0625H1906.81C1914.17 35.0625 1920.01 40.2951 1920.01 46.7523C1920.01 53.2095 1914.17 58.3306 1906.81 58.3306H1828.12C1820.76 58.3306 1814.92 53.2095 1814.92 46.7523Z" fill="#1E84B5" fill-opacity="0.1"/>
<path d="M105.211 117.468C61.4869 121.783 57.661 125.379 52.7421 163.735C47.8231 125.379 43.724 121.783 0 117.468C43.724 113.153 47.8231 109.797 52.7421 71.4414C57.661 109.797 61.4869 113.153 105.211 117.468Z" fill="#1E84B5" fill-opacity="0.1"/>
</svg>

<svg xmlns="http://www.w3.org/2000/svg" width="1920" height="164" fill="none" viewBox="0 0 1920 164"><path fill="#1e84b5" fill-opacity=".1" d="M1867.47 92.844c-7.36 0-13.2-5.232-13.2-11.578V12.24c0-6.457 5.84-11.69 13.2-11.69s13.33 5.233 13.33 11.69v69.026c0 6.346-5.97 11.578-13.33 11.578"/><path fill="#1e84b5" fill-opacity=".1" d="M1814.92 46.752c0-6.457 5.84-11.69 13.2-11.69h78.69c7.36 0 13.2 5.233 13.2 11.69s-5.84 11.579-13.2 11.579h-78.69c-7.36 0-13.2-5.122-13.2-11.579M105.211 117.468c-43.724 4.315-47.55 7.911-52.469 46.267-4.919-38.356-9.018-41.952-52.742-46.267 43.724-4.315 47.823-7.671 52.742-46.027 4.919 38.356 8.745 41.712 52.469 46.027"/></svg>
